formas-de-pagamento/discover.svg

<svg enable-background="new 0 0 60 40" height="40" viewBox="0 0 60 40" width="60" xmlns="http://www.w3.org/2000/svg" xmlns:xlink="http://www.w3.org/1999/xlink"><linearGradient id="a" gradientUnits="userSpaceOnUse" x1="29.1208" x2="33.4358" y1="17.1542" y2="23.2004"><stop offset="0" stop-color="#e25416"/><stop offset="1" stop-color="#f9a020"/></linearGradient><switch><foreignObject height="1" requiredExtensions="http://ns.adobe.com/AdobeIllustrator/10.0/" width="1"/><g><path d="m60 35c0 2.75-2.25 5-5 5h-50c-2.75 0-5-2.25-5-5v-30c0-2.75 2.25-5 5-5h50c2.75 0 5 2.25 5 5z" fill="#fff"/><path d="m60 27.5v7.5c0 .688-.141 1.344-.395 1.941-.255.597-.621 1.137-1.074 1.59s-.992.819-1.59 1.074c-.599.254-1.254.395-1.941.395h-22.457-22.457z" fill="#f16821"/><path d="m55 0h-50c-2.75 0-5 2.25-5 5v30c0 2.75 2.25 5 5 5h50c2.75 0 5-2.25 5-5v-30c0-2.75-2.25-5-5-5zm0 1c2.206 0 4 1.794 4 4v30c0 2.206-1.794 4-4 4h-50c-2.206 0-4-1.794-4-4v-30c0-2.206 1.794-4 4-4z" fill="#d0d0d0" opacity=".6"/><path d="m31.187 16.624c-1.93 0-3.497 1.508-3.497 3.368 0 1.978 1.498 3.458 3.497 3.458 1.947 0 3.484-1.498 3.484-3.417 0-1.912-1.527-3.409-3.484-3.409z" fill="url(#a)"/><path d="m50.753 23.301-2.085-2.79c.972-.197 1.509-.863 1.509-1.875 0-1.242-.852-1.957-2.342-1.957h-1.916v6.622h1.291v-2.66h.169l1.787 2.66zm-1.905-4.597c0 .665-.439 1.023-1.261 1.023h-.377v-2.006h.396c.803.001 1.242.338 1.242.983zm-7.447 4.597v-6.622h3.662v1.122h-2.372v1.47h2.283v1.122h-2.283v1.787h2.372v1.122h-3.662zm-3.445.169h-.695l-2.809-6.791h1.409l1.766 4.448 1.787-4.448h1.401zm-12.409-.02c-1.966 0-3.495-1.509-3.495-3.455 0-1.925 1.569-3.465 3.525-3.465.555 0 1.022.119 1.588.407v1.52c-.537-.527-1.003-.745-1.618-.745-1.212 0-2.166 1.002-2.166 2.273 0 1.34.924 2.283 2.225 2.283.586 0 1.041-.208 1.559-.725v1.52c-.585.278-1.062.387-1.618.387zm-6.185.011c-.984 0-1.698-.387-2.293-1.261l.834-.804c.297.575.794.883 1.408.883.577 0 1.003-.397 1.003-.933 0-.278-.127-.516-.385-.686-.13-.079-.388-.199-.894-.376-1.211-.437-1.628-.903-1.628-1.817 0-1.081.894-1.895 2.064-1.895.725 0 1.391.248 1.946.734l-.674.884c-.339-.378-.655-.537-1.043-.537-.555 0-.964.318-.964.735 0 .358.231.546 1.004.834 1.469.537 1.906 1.013 1.906 2.065 0 1.279-.944 2.174-2.284 2.174zm-4.07-6.782h1.289v6.622h-1.289zm-.595 3.316c0-1.956-1.46-3.316-3.554-3.316h-1.896v6.622h1.885c1.003 0 1.728-.238 2.363-.765.755-.624 1.202-1.568 1.202-2.541zm-1.331-.01c0 .636-.267 1.271-.714 1.668-.407.367-.933.526-1.767.526h-.348v-4.379h.348c.834 0 1.34.149 1.767.536.447.398.714 1.014.714 1.649z" fill="#221f1f"/><path d="m28.081 20.391c0-1.86 1.567-3.368 3.497-3.368.889 0 1.688.309 2.297.825-.633-.752-1.596-1.224-2.696-1.224-1.93 0-3.497 1.508-3.497 3.368 0 1.087.453 2.023 1.192 2.646-.499-.595-.793-1.372-.793-2.247z" fill="#a3310b"/></g></switch></svg>

<?xml version="1.0" encoding="UTF-8"?>
<svg width="60px" height="40px" viewBox="0 0 60 40" version="1.1" xmlns="http://www.w3.org/2000/svg" xmlns:xlink="http://www.w3.org/1999/xlink">
    <!-- Generator: Sketch 52.4 (67378) - http://www.bohemiancoding.com/sketch -->
    <title>Artboard</title>
    <desc>Created with Sketch.</desc>
    <defs>
        <linearGradient x1="20.495631%" y1="7.76736009%" x2="82.3062598%" y2="96.3433929%" id="linearGradient-1">
            <stop stop-color="#E25416" offset="0%"></stop>
            <stop stop-color="#F9A020" offset="100%"></stop>
        </linearGradient>
    </defs>
    <g id="Artboard" stroke="none" stroke-width="1" fill="none" fill-rule="evenodd">
        <g id="discover">
            <path d="M60,35 C60,37.75 57.75,40 55,40 L5,40 C2.25,40 0,37.75 0,35 L0,5 C0,2.25 2.25,0 5,0 L55,0 C57.75,0 60,2.25 60,5 L60,35 Z" id="Path" fill="#FFFFFF"></path>
            <path d="M60,27.5 L60,35 C60,35.688 59.859,36.344 59.605,36.941 C59.35,37.538 58.984,38.078 58.531,38.531 C58.078,38.984 57.539,39.35 56.941,39.605 C56.342,39.859 55.687,40 55,40 L32.543,40 L10.086,40 L60,27.5 Z" id="Path" fill="#F16821"></path>
            <path d="M55,0 L5,0 C2.25,0 0,2.25 0,5 L0,35 C0,37.75 2.25,40 5,40 L55,40 C57.75,40 60,37.75 60,35 L60,5 C60,2.25 57.75,0 55,0 Z M55,1 C57.206,1 59,2.794 59,5 L59,35 C59,37.206 57.206,39 55,39 L5,39 C2.794,39 1,37.206 1,35 L1,5 C1,2.794 2.794,1 5,1 L55,1 Z" id="Shape" fill="#D0D0D0" fill-rule="nonzero"></path>
            <path d="M31.187,16.624 C29.257,16.624 27.69,18.132 27.69,19.992 C27.69,21.97 29.188,23.45 31.187,23.45 C33.134,23.45 34.671,21.952 34.671,20.033 C34.671,18.121 33.144,16.624 31.187,16.624 Z" id="Path" fill="url(#linearGradient-1)"></path>
            <path d="M50.753,23.301 L48.668,20.511 C49.64,20.314 50.177,19.648 50.177,18.636 C50.177,17.394 49.325,16.679 47.835,16.679 L45.919,16.679 L45.919,23.301 L47.21,23.301 L47.21,20.641 L47.379,20.641 L49.166,23.301 L50.753,23.301 Z M48.848,18.704 C48.848,19.369 48.409,19.727 47.587,19.727 L47.21,19.727 L47.21,17.721 L47.606,17.721 C48.409,17.722 48.848,18.059 48.848,18.704 Z M41.401,23.301 L41.401,16.679 L45.063,16.679 L45.063,17.801 L42.691,17.801 L42.691,19.271 L44.974,19.271 L44.974,20.393 L42.691,20.393 L42.691,22.18 L45.063,22.18 L45.063,23.302 L41.401,23.302 L41.401,23.301 Z M37.956,23.47 L37.261,23.47 L34.452,16.679 L35.861,16.679 L37.627,21.127 L39.414,16.679 L40.815,16.679 L37.956,23.47 Z M25.547,23.45 C23.581,23.45 22.052,21.941 22.052,19.995 C22.052,18.07 23.621,16.53 25.577,16.53 C26.132,16.53 26.599,16.649 27.165,16.937 L27.165,18.457 C26.628,17.93 26.162,17.712 25.547,17.712 C24.335,17.712 23.381,18.714 23.381,19.985 C23.381,21.325 24.305,22.268 25.606,22.268 C26.192,22.268 26.647,22.06 27.165,21.543 L27.165,23.063 C26.58,23.341 26.103,23.45 25.547,23.45 Z M19.362,23.461 C18.378,23.461 17.664,23.074 17.069,22.2 L17.903,21.396 C18.2,21.971 18.697,22.279 19.311,22.279 C19.888,22.279 20.314,21.882 20.314,21.346 C20.314,21.068 20.187,20.83 19.929,20.66 C19.799,20.581 19.541,20.461 19.035,20.284 C17.824,19.847 17.407,19.381 17.407,18.467 C17.407,17.386 18.301,16.572 19.471,16.572 C20.196,16.572 20.862,16.82 21.417,17.306 L20.743,18.19 C20.404,17.812 20.088,17.653 19.7,17.653 C19.145,17.653 18.736,17.971 18.736,18.388 C18.736,18.746 18.967,18.934 19.74,19.222 C21.209,19.759 21.646,20.235 21.646,21.287 C21.646,22.566 20.702,23.461 19.362,23.461 Z M15.292,16.679 L16.581,16.679 L16.581,23.301 L15.292,23.301 L15.292,16.679 Z M14.697,19.995 C14.697,18.039 13.237,16.679 11.143,16.679 L9.247,16.679 L9.247,23.301 L11.132,23.301 C12.135,23.301 12.86,23.063 13.495,22.536 C14.25,21.912 14.697,20.968 14.697,19.995 Z M13.366,19.985 C13.366,20.621 13.099,21.256 12.652,21.653 C12.245,22.02 11.719,22.179 10.885,22.179 L10.537,22.179 L10.537,17.8 L10.885,17.8 C11.719,17.8 12.225,17.949 12.652,18.336 C13.099,18.734 13.366,19.35 13.366,19.985 Z" id="Shape" fill="#221F1F" fill-rule="nonzero"></path>
            <path d="M28.081,20.391 C28.081,18.531 29.648,17.023 31.578,17.023 C32.467,17.023 33.266,17.332 33.875,17.848 C33.242,17.096 32.279,16.624 31.179,16.624 C29.249,16.624 27.682,18.132 27.682,19.992 C27.682,21.079 28.135,22.015 28.874,22.638 C28.375,22.043 28.081,21.266 28.081,20.391 Z" id="Path" fill="#A3310B"></path>
        </g>
    </g>
</svg>
